X:1
T:Countless Blessings
T:Countless Blessings
T:Lelia Naylor Morris
T:Lelia Naylor Morris, 1908
T:Public Domain Courtesy of the Cyber Hymnal™
T:Public Domain Courtesy of the Cyber Hymnal™
C:Lelia Naylor Morris
Z:Public Domain
Z:Courtesy of the Cyber Hymnal™
%%score ( 1 2 ) ( 3 4 )
L:1/8
Q:1/4=95
M:4/4
K:D
V:1 treble 
V:2 treble 
V:3 bass 
V:4 bass 
V:1
 A,A, | [A,D][A,D][A,D][CE] [DF][DF][FA][FB] | [DF]2 [D^E]2 [DF]2 [FA][FA] | %3
w: 1.~Crowned and|crowd- ed with God’s bless- ings has my|path- way been, Ev- ery|
w: 2.~From His|store- house o- ver- flow- ing, like a|king He gives, And with|
w: 3.~Tho’ His|love I can- not fa- thom, or His|mer- cies count, Or my|
w: 4.~Press- ing|on- ward, ev- er on- ward, ne- ver|look- ing back Till I|
 [GA][GA][CE][DF] [EG][Gc] [EG]>[GB] | [FA]6 A,A, | [A,D][A,D][A,D][CE] [DF][DF][FA][FB] | %6
w: mo- ment from His boun- ty some- thing|new; I have|tried to count them o- ver, but when|
w: lav- ish hand my ev- ery need sup-|plies; Un- told|mer- cies ev- ery day from Him my|
w: debt of gra- ti- tude to Him re-|pay, Hearts by|sin and sor- row brok- en ev- ery-|
w: reach my home in yon- der sun- bright|clime; With my|way to Him com- mit- ted, no- thing|
 [DF]2 [D^E]2 [DF]2 [DA][DA] | [CA][CA][Ec][Ed] [Ec][EA] [E^G]>[EG] | [EA]6 ||"^Refrain" [GA][GA] | %10
w: I be- gin, I can|on- ly stop and mar- vel at the|view.||
w: heart re- ceives, And to|com- pre- hend His good- ness vain- ly|tries.|Count- less|
w: where are found, I can|pass my bless- ings on to cheer their|way.||
w: shall I lack For I|have the Bless- er with me all the|time.||
 [EG][Gc]- [Gc]4 [GB][Gc] | [GB][FA]- [FA]4 (Ad) | [ce][Bd][Ac][GB] [FA][EG] [DF]>[DA] | %13
w: |||
w: bless- ings, * count- less|bless- ings, * And *|bless- ings more to fol- low, praise His|
w: |||
w: |||
 E6 [GA][GA] | [Fd]>[Fd] [^Ed][Ed] [Fd][FA][DF][DF] | %15
w: ||
w: name! I am|lost and love and won- der, for they|
w: ||
w: ||
 [DG]>[DG] [DG][GA] [GB]!fermata![Gd] ([Ac][GB]) | [FA][FA][^Ed][Ed] [Fd][FA] [Gc]>[G=e] | d6 |] %18
w: |||
w: far the stars out- num- ber, And *|bless- ings more to fol- low, praise His|name.|
w: |||
w: |||
V:2
 A,A, | x8 | x8 | x8 | x6 A,A, | x8 | x8 | x8 | x6 || x2 | x8 | x6 F2 | x8 | (C2 B,>D C2) x2 | x8 | %15
 x8 | x8 | (F2 G2 F2) |] %18
V:3
 [D,F,][D,F,] | [D,F,][D,F,][D,F,][D,G,] [D,A,][D,A,][D,D][D,D] | %2
w: ~ ~|~ ~ ~ ~ ~ ~ ~ ~|
 [D,A,]2 [D,^G,]2 [D,A,]2 [D,D][D,D] | [E,C][E,C][A,,A,][A,,A,] [A,,A,][A,,A,] [A,,A,]>[A,,C] | %4
w: ~ ~ ~ ~ ~|~ ~ ~ ~ ~ ~ ~ ~|
 [D,D]6 [D,F,][D,F,] | [D,F,][D,F,][D,F,][D,G,] [D,A,][D,A,][D,D][D,D] | %6
w: ~ ~ ~|~ ~ ~ ~ ~ ~ ~ ~|
 [D,A,]2 [D,^G,]2 [D,A,]2 [F,A,][F,A,] | [E,A,][E,A,][E,A,][E,^G,] [E,A,][E,C] [E,D]>[E,D] | %8
w: ~ ~ ~ ~ ~|~ ~ ~ ~ ~ ~ ~ ~|
 [A,,C]6 || [A,C]A, | A,A, [A,E]>[A,E] [A,E]2 [A,C]A, | [D,A,][D,A,] [D,D]>[D,D] [D,D]2 [D,A,]2 | %12
w: ~|~ ~|~ ~ come to Me, ~ ~|~ ~ rich and free, ~|
 [A,,A,][A,,A,][A,,A,][A,,A,] [A,,A,][A,,A,] [D,A,]>[F,A,] | %13
w: ~ ~ ~ ~ ~ ~ ~ ~|
 A,2 [E,^G,]>[E,B,] [A,,A,]2 [A,,A,][A,,A,] | [D,A,]>[D,A,] [D,^G,][D,G,] [D,A,][D,D][D,A,][D,C] | %15
w: ~ praise His name! ~ ~|~ ~ ~ ~ ~ ~ ~ ~|
 [G,B,]>[G,B,] [G,B,][G,C] [G,D]!fermata![G,B,] [G,D]2 | %16
w: ~ ~ ~ ~ ~ ~ ~|
 [A,D][A,D][B,D][B,D] [A,D]A, [A,,A,]>[A,,A,] | A,2 B,2 A,2 |] %18
w: ~ ~ ~ ~ ~ ~ ~ ~|~ His name.|
V:4
 x2 | x8 | x8 | x8 | x8 | x8 | x8 | x8 | x6 || x A, | A,A, x4 A, x | x8 | x8 | A,2 x6 | x8 | x8 | %16
 x5 A, x2 | D,6 |] %18

